lib/svgs/bold.svg

<svg xmlns="http://www.w3.org/2000/svg" viewBox="0 0 20 20">
    <path fill="#000" fill-rule="evenodd" d="M6.00000153,15 L6.00000153,11.2294556 L6.00164813,10.1999998 L6,10.1999998 L6,5.2 L5.6,5.2 C5.26862915,5.2 5,4.93137085 5,4.6 C5,4.26862915 5.26862915,4 5.6,4 L11.1,4 C12.8122167,4 14.2,5.387975 14.2,7.1 C14.2,7.99983584 13.8166213,8.81015204 13.2042597,9.37646917 C14.3872185,9.96647357 15.2,11.1885186 15.2,12.6 C15.2,14.5878708 13.5878708,16.2 11.6,16.2 L7.20919189,16.2 L5.6,16.2 C5.26862915,16.2 5,15.9313708 5,15.6 C5,15.2686292 5.26862915,15 5.6,15 L6.00000153,15 L6.00000153,15 L6.00000153,15 Z M7.19999847,15 L11.5929184,15 C12.9219568,15 13.9999987,13.9251292 13.9999987,12.6 C13.9999987,11.2748708 12.9219568,10.2 11.5929184,10.2 L7.19999847,10.2 M7.2,5.2 L7.2,9 L11.1,9 C12.1494379,9 13,8.1493204 13,7.1 C13,6.0506796 12.1494379,5.2 11.1,5.2"/>
</svg>

<svg xmlns="http://www.w3.org/2000/svg" viewBox="0 0 20 20">
    <path fill="#000" fill-rule="evenodd" d="M6 15v-3.77l.002-1.03H6v-5h-.4a.6.6 0 1 1 0-1.2h5.5a3.1 3.1 0 0 1 2.104 5.376A3.6 3.6 0 0 1 11.6 16.2h-6a.6.6 0 0 1 0-1.2H6m1.2 0h4.393a2.404 2.404 0 1 0 0-4.8H7.2m0-5V9h3.9a1.9 1.9 0 1 0 0-3.8"/>
</svg>
